src/lib/packages/icons/src/assets/line/edit.svg

<svg width="24" height="24" viewBox="0 0 24 24" fill="none" xmlns="http://www.w3.org/2000/svg">
<path d="M19.75 15V18C19.75 20.418 18.418 21.75 16 21.75H6C3.582 21.75 2.25 20.418 2.25 18V8C2.25 5.582 3.582 4.25 6 4.25H9C9.414 4.25 9.75 4.586 9.75 5C9.75 5.414 9.414 5.75 9 5.75H6C4.423 5.75 3.75 6.423 3.75 8V18C3.75 19.577 4.423 20.25 6 20.25H16C17.577 20.25 18.25 19.577 18.25 18V15C18.25 14.586 18.586 14.25 19 14.25C19.414 14.25 19.75 14.586 19.75 15ZM21.75 6.056C21.749 6.643 21.52 7.194 21.104 7.608L12.141 16.531C12 16.671 11.81 16.75 11.612 16.75H8C7.586 16.75 7.25 16.414 7.25 16V12.389C7.25 12.191 7.32799 12 7.46899 11.86L16.392 2.896C16.805 2.48 17.357 2.251 17.944 2.25C17.945 2.25 17.946 2.25 17.947 2.25C18.533 2.25 19.084 2.47801 19.499 2.89301L21.108 4.50201C21.522 4.91701 21.751 5.469 21.75 6.056ZM17.617 8.96301L15.037 6.383L8.75 12.699V15.251H11.302L17.617 8.96301ZM20.25 6.05399C20.25 5.86799 20.178 5.69301 20.047 5.56201L18.438 3.953C18.307 3.822 18.132 3.75 17.947 3.75H17.946C17.76 3.75 17.586 3.82301 17.455 3.95401L16.096 5.319L18.681 7.90399L20.046 6.54501C20.177 6.41501 20.249 6.23999 20.25 6.05399Z" fill="currentColor"/>
</svg>

<svg xmlns="http://www.w3.org/2000/svg" width="24" height="24" fill="none"><path fill="currentColor" d="M19.75 15v3c0 2.418-1.332 3.75-3.75 3.75H6c-2.418 0-3.75-1.332-3.75-3.75V8c0-2.418 1.332-3.75 3.75-3.75h3a.75.75 0 0 1 0 1.5H6c-1.577 0-2.25.673-2.25 2.25v10c0 1.577.673 2.25 2.25 2.25h10c1.577 0 2.25-.673 2.25-2.25v-3a.75.75 0 0 1 1.5 0Zm2-8.944a2.18 2.18 0 0 1-.646 1.552l-8.963 8.923a.751.751 0 0 1-.529.219H8a.75.75 0 0 1-.75-.75v-3.611c0-.198.078-.389.219-.529l8.923-8.964a2.178 2.178 0 0 1 1.552-.646h.003a2.18 2.18 0 0 1 1.552.643l1.609 1.609c.414.415.643.967.642 1.554Zm-4.133 2.907-2.58-2.58-6.287 6.316v2.552h2.552l6.315-6.288Zm2.633-2.909a.691.691 0 0 0-.203-.492l-1.609-1.609a.69.69 0 0 0-.491-.203h-.001a.69.69 0 0 0-.491.204l-1.359 1.365 2.585 2.585 1.365-1.359a.692.692 0 0 0 .204-.491Z"/></svg>
